_includes/logos/logotype.svg

<svg width="7034" height="2845" viewBox="0 0 7034 2845" fill="none" xmlns="http://www.w3.org/2000/svg" class="logotype">
<g filter="url(#filter0_d)">
<path d="M755.522 150C834.403 150 909.803 163.92 981.723 191.76C1054.8 218.44 1119.76 257.88 1176.6 310.081C1233.44 362.281 1278.1 426.081 1310.58 501.481C1344.22 576.882 1361.04 662.722 1361.04 759.002C1361.04 855.283 1344.22 941.123 1310.58 1016.52C1278.1 1091.92 1233.44 1155.72 1176.6 1207.92C1119.76 1260.12 1054.8 1300.14 981.723 1327.98C909.803 1354.66 834.403 1368 755.522 1368C676.642 1368 600.662 1354.66 527.581 1327.98C455.661 1300.14 391.281 1260.12 334.441 1207.92C277.6 1155.72 232.36 1091.92 198.72 1016.52C166.24 941.123 150 855.283 150 759.002C150 662.722 166.24 576.882 198.72 501.481C232.36 426.081 277.6 362.281 334.441 310.081C391.281 257.88 455.661 218.44 527.581 191.76C600.662 163.92 676.642 150 755.522 150ZM755.522 454.501C703.322 454.501 656.922 467.841 616.322 494.521C575.722 521.201 543.241 557.742 518.881 604.142C495.681 649.382 484.081 701.002 484.081 759.002C484.081 817.003 495.681 869.203 518.881 915.603C543.241 960.843 575.722 996.803 616.322 1023.48C656.922 1050.16 703.322 1063.5 755.522 1063.5C807.722 1063.5 854.123 1050.16 894.723 1023.48C936.483 996.803 968.963 960.843 992.163 915.603C1015.36 869.203 1026.96 817.003 1026.96 759.002C1026.96 701.002 1015.36 649.382 992.163 604.142C968.963 557.742 936.483 521.201 894.723 494.521C854.123 467.841 807.722 454.501 755.522 454.501Z" fill="white"/>
<path d="M2039.45 158.7L2578.86 1341.9H2199.53L2142.11 1185.3H1773.23L1715.81 1341.9H1336.49L1875.89 158.7H2039.45ZM1957.67 684.182L1868.93 924.303H2046.41L1957.67 684.182Z" fill="white"/>
<path d="M2301.89 1502.1L1922.57 2667.9H1677.23L1473.64 2050.2L1270.06 2667.9H1024.72L641.922 1502.1H1021.24L1179.58 2107.62L1360.54 1502.1H1583.26L1767.71 2107.62L1922.57 1502.1H2301.89Z" fill="white"/>
<path d="M4168.25 1502.1C4227.41 1502.1 4284.83 1510.22 4340.51 1526.46C4397.35 1542.7 4448.39 1567.64 4493.63 1601.28C4538.87 1634.92 4574.83 1677.26 4601.51 1728.3C4629.35 1779.34 4643.28 1839.08 4643.28 1907.52C4643.28 1994.52 4618.33 2066.44 4568.45 2123.28C4519.73 2180.12 4457.09 2218.98 4380.53 2239.86L4702.44 2667.9H4305.71L3994.25 2205.06V2667.9H3668.87V1502.1H4168.25ZM3994.25 1806.6V2024.1C4013.97 2031.06 4034.85 2036.86 4056.89 2041.5C4080.09 2046.14 4104.45 2048.46 4129.97 2048.46C4181.01 2048.46 4223.35 2038.6 4256.99 2018.88C4291.79 1998 4309.19 1966.68 4309.19 1924.92C4309.19 1877.36 4291.79 1846.04 4256.99 1830.96C4223.35 1814.72 4181.01 1806.6 4129.97 1806.6H3994.25Z" fill="white"/>
<path d="M5157.06 1502.1V1930.14L5513.77 1502.1H5905.27L5484.18 1980.6L5957.47 2667.9H5543.35L5263.2 2229.42L5157.06 2349.48V2667.9H4831.68V1502.1H5157.06Z" fill="white"/>
<path d="M6448.63 1476C6517.08 1476 6584.36 1484.7 6650.48 1502.1C6717.76 1518.34 6771.7 1540.38 6812.3 1568.22V1883.16C6762.42 1854.16 6713.12 1829.22 6664.4 1808.34C6615.68 1786.3 6558.26 1775.28 6492.14 1775.28C6453.86 1775.28 6420.79 1781.08 6392.95 1792.68C6365.11 1804.28 6351.19 1823.42 6351.19 1850.1C6351.19 1879.1 6368.01 1901.14 6401.65 1916.22C6435.29 1930.14 6476.48 1946.38 6525.2 1964.94L6650.48 2011.92C6735.16 2044.4 6794.9 2088.48 6829.7 2144.16C6865.66 2199.84 6883.64 2255.52 6883.64 2311.2C6883.64 2385.44 6862.18 2451.56 6819.26 2509.56C6776.34 2566.4 6718.34 2611.64 6645.26 2645.28C6572.18 2677.76 6490.39 2694 6399.91 2694C6330.31 2694 6261.29 2681.82 6192.85 2657.46C6124.41 2633.1 6064.67 2602.94 6013.63 2566.98V2252.04C6069.31 2293.8 6129.05 2328.02 6192.85 2354.7C6257.81 2381.38 6322.77 2394.72 6387.73 2394.72C6428.34 2394.72 6460.82 2390.08 6485.18 2380.8C6510.7 2370.36 6523.46 2352.96 6523.46 2328.6C6523.46 2311.2 6514.18 2296.12 6495.61 2283.36C6477.05 2270.6 6452.12 2259.58 6420.8 2250.3L6255.49 2198.1C6190.53 2177.22 6140.07 2148.8 6104.11 2112.84C6068.15 2076.88 6043.21 2036.86 6029.29 1992.78C6015.37 1947.54 6008.41 1901.72 6008.41 1855.32C6008.41 1772.96 6029.29 1703.94 6071.05 1648.26C6112.81 1591.42 6167.33 1548.5 6234.61 1519.5C6301.89 1490.5 6373.23 1476 6448.63 1476Z" fill="white"/>
<path d="M2941.1 1476C3019.98 1476 3095.38 1489.92 3167.3 1517.76C3240.38 1544.44 3305.34 1583.88 3362.18 1636.08C3419.02 1688.28 3463.68 1752.08 3496.16 1827.48C3529.8 1902.88 3546.62 1988.72 3546.62 2085C3546.62 2181.28 3529.8 2267.12 3496.16 2342.52C3463.68 2417.92 3419.02 2481.72 3362.18 2533.92C3305.34 2586.12 3240.38 2626.14 3167.3 2653.98C3095.38 2680.66 3019.98 2694 2941.1 2694C2862.22 2694 2786.24 2680.66 2713.16 2653.98C2641.24 2626.14 2576.86 2586.12 2520.02 2533.92C2463.18 2481.72 2417.94 2417.92 2384.3 2342.52C2351.82 2267.12 2335.58 2181.28 2335.58 2085C2335.58 1988.72 2351.82 1902.88 2384.3 1827.48C2417.94 1752.08 2463.18 1688.28 2520.02 1636.08C2576.86 1583.88 2641.24 1544.44 2713.16 1517.76C2786.24 1489.92 2862.22 1476 2941.1 1476ZM2941.1 1780.5C2888.9 1780.5 2842.5 1793.84 2801.9 1820.52C2761.3 1847.2 2728.82 1883.74 2704.46 1930.14C2681.26 1975.38 2669.66 2027 2669.66 2085C2669.66 2143 2681.26 2195.2 2704.46 2241.6C2728.82 2286.84 2761.3 2322.8 2801.9 2349.48C2842.5 2376.16 2888.9 2389.5 2941.1 2389.5C2993.3 2389.5 3039.7 2376.16 3080.3 2349.48C3122.06 2322.8 3154.54 2286.84 3177.74 2241.6C3200.94 2195.2 3212.54 2143 3212.54 2085C3212.54 2027 3200.94 1975.38 3177.74 1930.14C3154.54 1883.74 3122.06 1847.2 3080.3 1820.52C3039.7 1793.84 2993.3 1780.5 2941.1 1780.5Z" fill="white"/>
<path d="M3246.35 1063.27C3246.35 1231.45 3110.02 1367.78 2941.85 1367.78C2773.67 1367.78 2637.34 1231.45 2637.34 1063.27C2637.34 895.103 2773.67 758.773 2941.85 758.773C3110.02 758.773 3246.35 895.103 3246.35 1063.27Z" fill="#FFC224"/>
</g>
<defs>
<filter id="filter0_d" x="0" y="0" width="7033.64" height="2844" filterUnits="userSpaceOnUse" color-interpolation-filters="sRGB">
<feFlood flood-opacity="0" result="BackgroundImageFix"/>
<feColorMatrix in="SourceAlpha" type="matrix" values="0 0 0 0 0 0 0 0 0 0 0 0 0 0 0 0 0 0 127 0"/>
<feOffset/>
<feGaussianBlur stdDeviation="75"/>
<feColorMatrix type="matrix" values="0 0 0 0 0.145098 0 0 0 0 0.12549 0 0 0 0 0.117647 0 0 0 0.3 0"/>
<feBlend mode="normal" in2="BackgroundImageFix" result="effect1_dropShadow"/>
<feBlend mode="normal" in="SourceGraphic" in2="effect1_dropShadow" result="shape"/>
</filter>
</defs>
</svg>

<svg fill="none" xmlns="http://www.w3.org/2000/svg" class="logotype" viewBox="0 0 7034 2845">
  <g filter="url(#filter0_d)">
    <path d="M755.5 150c78.9 0 154.3 14 226.2 41.8 73.1 26.6 138 66 194.9 118.3a553.1 553.1 0 01134 191.4c33.6 75.4 50.4 161.2 50.4 257.5 0 96.3-16.8 182.1-50.4 257.5a553.1 553.1 0 01-134 191.4 602.4 602.4 0 01-194.9 120 645 645 0 01-226.2 40.1 659.5 659.5 0 01-228-40 607 607 0 01-193-120 573.2 573.2 0 01-135.8-191.5C166.2 941.1 150 855.3 150 759c0-96.3 16.2-182.1 48.7-257.5a573.2 573.2 0 01328.9-309.7 635 635 0 01228-41.8zm0 304.5c-52.2 0-98.6 13.3-139.2 40A288.7 288.7 0 00519 604.1C495.7 649.4 484 701 484 759s11.6 110.2 34.8 156.6a292.1 292.1 0 0097.4 107.9c40.6 26.7 87 40 139.2 40 52.2 0 98.6-13.3 139.2-40a273.6 273.6 0 0097.5-107.9A345.4 345.4 0 001027 759c0-58-11.6-109.6-34.8-154.9a270.9 270.9 0 00-97.5-109.6c-40.6-26.7-87-40-139.2-40zM2039.5 158.7l539.4 1183.2h-379.4l-57.4-156.6h-368.9l-57.4 156.6h-379.3l539.4-1183.2h163.5zm-81.8 525.5l-88.8 240.1h177.5l-88.7-240.1zM2301.9 1502.1l-379.3 1165.8h-245.4l-203.6-617.7-203.5 617.7h-245.4L642 1502.1h379.3l158.4 605.5 181-605.5h222.7l184.4 605.5 154.9-605.5h379.3zM4168.3 1502.1a612 612 0 01172.2 24.4 471 471 0 01153.1 74.8 369 369 0 01108 127c27.8 51 41.7 110.8 41.7 179.2 0 87-25 159-74.9 215.8-48.7 56.8-111.3 95.7-187.9 116.6l322 428h-396.8l-311.4-462.8v462.8h-325.4V1502.1h499.3zm-174 304.5v217.5c19.7 7 40.5 12.8 62.6 17.4a372 372 0 0073 7c51.1 0 93.5-9.9 127-29.6 34.9-20.9 52.3-52.2 52.3-94 0-47.5-17.4-78.9-52.2-94-33.6-16.2-76-24.3-127-24.3h-135.8zM5157 1502.1v428l356.8-428h391.5l-421.1 478.5 473.3 687.3h-414.1l-280.2-438.5-106.1 120V2668h-325.4V1502.1H5157zM6448.6 1476c68.5 0 135.8 8.7 201.9 26.1 67.3 16.2 121.2 38.3 161.8 66.1v315a1363 1363 0 00-147.9-74.9c-48.7-22-106.1-33-172.3-33a257 257 0 00-99.2 17.4c-27.8 11.6-41.7 30.7-41.7 57.4 0 29 16.8 51 50.4 66.1 33.7 14 74.9 30.2 123.6 48.7l125.3 47c84.7 32.5 144.4 76.6 179.2 132.3 36 55.6 54 111.3 54 167 0 74.2-21.5 140.4-64.4 198.4-43 56.8-101 102-174 135.7-73.1 32.5-155 48.7-245.4 48.7a613.6 613.6 0 01-207-36.5 740.7 740.7 0 01-179.3-90.5v-315a833.7 833.7 0 00179.3 102.7c65 26.7 129.9 40 194.8 40 40.6 0 73.1-4.6 97.5-13.9 25.5-10.4 38.3-27.8 38.3-52.2 0-17.4-9.3-32.5-27.9-45.2a266.6 266.6 0 00-74.8-33.1l-165.3-52.2c-65-20.9-115.4-49.3-151.4-85.3s-60.9-76-74.8-120a465 465 0 01-20.9-137.5c0-82.3 20.9-151.4 62.7-207a390.5 390.5 0 01163.5-128.8 535 535 0 01214-43.5zM2941.1 1476c78.9 0 154.3 14 226.2 41.8 73 26.6 138 66 194.9 118.3a553.1 553.1 0 01134 191.4c33.6 75.4 50.4 161.2 50.4 257.5 0 96.3-16.8 182.1-50.4 257.5a553.1 553.1 0 01-134 191.4 602.4 602.4 0 01-194.9 120 645 645 0 01-226.2 40.1 659.5 659.5 0 01-228-40 607 607 0 01-193-120 573.3 573.3 0 01-135.8-191.5c-32.5-75.4-48.7-161.2-48.7-257.5 0-96.3 16.2-182.1 48.7-257.5a573.3 573.3 0 01328.9-309.7A635 635 0 012941 1476zm0 304.5c-52.2 0-98.6 13.3-139.2 40a288.7 288.7 0 00-97.4 109.6c-23.2 45.3-34.8 96.9-34.8 154.9s11.6 110.2 34.8 156.6a292.1 292.1 0 0097.4 107.9c40.6 26.7 87 40 139.2 40 52.2 0 98.6-13.3 139.2-40a273.6 273.6 0 0097.4-107.9 345.3 345.3 0 0034.8-156.6c0-58-11.6-109.6-34.8-154.9a270.9 270.9 0 00-97.4-109.6c-40.6-26.7-87-40-139.2-40z" fill="#fff" style="mix-blend-mode: difference;"/>
    <path d="M3246.3 1063.3a304.5 304.5 0 11-609 0 304.5 304.5 0 01609 0z" fill="#FFC224"/>
  </g>
  <defs>
    <filter id="filter0_d" x="0" y="0" width="7033.6" height="2844" filterUnits="userSpaceOnUse" color-interpolation-filters="sRGB">
      <feFlood flood-opacity="0" result="BackgroundImageFix"/>
      <feColorMatrix in="SourceAlpha" values="0 0 0 0 0 0 0 0 0 0 0 0 0 0 0 0 0 0 127 0"/>
      <feOffset/>
      <feGaussianBlur stdDeviation="75"/>
      <feColorMatrix values="0 0 0 0 0.145098 0 0 0 0 0.12549 0 0 0 0 0.117647 0 0 0 0.3 0"/>
      <feBlend in2="BackgroundImageFix" result="effect1_dropShadow"/>
      <feBlend in="SourceGraphic" in2="effect1_dropShadow" result="shape"/>
    </filter>
  </defs>
</svg>
